Catalina-light/actions/22/zoom-in-x.svg

<svg xmlns="http://www.w3.org/2000/svg" viewBox="0 0 22 22">
  <defs id="defs3051">
    <style type="text/css" id="current-color-scheme">
      .ColorScheme-Text {
        color:#4d4d4d
      }
      </style>
  </defs>
    <path
       style="fill:currentColor;fill-opacity:1;stroke:none"
       class="ColorScheme-Text"
       d="M 7.53125 3 L 3.4667969 3.0136719 C 3.3375969 3.0140919 3.2212188 3.0656906 3.1367188 3.1503906 C 3.0523188 3.2351106 2.99962 3.3515587 3 3.4804688 L 3.0136719 7.5351562 C 3.0144919 7.7930162 3.2239619 8.00088 3.4824219 8 C 3.7408419 7.99918 3.9499887 7.78906 3.9492188 7.53125 L 3.9375 3.9453125 L 7.5332031 3.9335938 C 7.7916131 3.9327837 8.00083 3.7225937 8 3.4648438 C 7.9993 3.2069737 7.78983 2.99911 7.53125 3 z M 13.945312 3 L 13.945312 5.8574219 L 6 8 L 13.945312 10.142578 L 13.945312 13 L 19 8 L 13.945312 3 z M 3.5996094 13 C 3.2672094 13 3 13.267209 3 13.599609 L 3 18.400391 C 3 18.732791 3.2672094 19 3.5996094 19 L 8.4003906 19 C 8.7327906 19 9 18.732791 9 18.400391 L 9 13.599609 C 9 13.267209 8.7327906 13 8.4003906 13 L 3.5996094 13 z M 18.517578 14 C 18.259158 14.00082 18.050011 14.21095 18.050781 14.46875 L 18.0625 18.054688 L 14.466797 18.066406 C 14.208387 18.067216 13.99917 18.277406 14 18.535156 C 14.00069 18.793026 14.21017 19.00089 14.46875 19 L 18.533203 18.986328 C 18.662393 18.985908 18.778781 18.934309 18.863281 18.849609 C 18.947581 18.764889 19.00038 18.648441 19 18.519531 L 18.986328 14.464844 C 18.985498 14.206984 18.776038 13.99912 18.517578 14 z "
        />
</svg>

<svg viewBox="0 0 22 22" xmlns="http://www.w3.org/2000/svg">
<defs>
<style id="current-color-scheme" type="text/css">.ColorScheme-Text {
        color:#363636
      }</style>
</defs>
<path class="ColorScheme-Text" d="m7.5312 3-4.0645 0.013672c-0.1292 4.2e-4 -0.24558 0.052019-0.33008 0.13672-0.0844 0.08472-0.1371 0.20117-0.13672 0.33008l0.013672 4.0547c8.2e-4 0.25786 0.21029 0.46572 0.46875 0.46484 0.25842-8.2e-4 0.46757-0.21094 0.4668-0.46875l-0.011719-3.5859 3.5957-0.011719c0.25841-8.101e-4 0.46763-0.211 0.4668-0.46875-7e-4 -0.25787-0.21017-0.46573-0.46875-0.46484zm6.4141 0v2.8574l-7.9453 2.1426 7.9453 2.1426v2.8574l5.0547-5-5.0547-5zm-10.346 10c-0.3324 0-0.59961 0.26721-0.59961 0.59961v4.8008c0 0.3324 0.26721 0.59961 0.59961 0.59961h4.8008c0.3324 0 0.59961-0.26721 0.59961-0.59961v-4.8008c0-0.3324-0.26721-0.59961-0.59961-0.59961h-4.8008zm14.918 1c-0.25842 8.2e-4 -0.46757 0.21095-0.4668 0.46875l0.011719 3.5859-3.5957 0.011718c-0.25841 8.1e-4 -0.46763 0.211-0.4668 0.46875 6.9e-4 0.25787 0.21017 0.46573 0.46875 0.46484l4.0645-0.013672c0.12919-4.2e-4 0.24558-0.052019 0.33008-0.13672 0.0843-0.08472 0.1371-0.20117 0.13672-0.33008l-0.013672-4.0547c-8.3e-4 -0.25786-0.21029-0.46572-0.46875-0.46484z" fill="#363636"/>
</svg>
